public/build/img/profile.svg

<?xml version="1.0" encoding="utf-8"?><!-- Uploaded to: SVG Repo, www.svgrepo.com, Generator: SVG Repo Mixer Tools -->
<svg width="800px" height="800px" viewBox="0 0 24 24" fill="none" xmlns="http://www.w3.org/2000/svg">
<path d="M12.12 12.78C12.05 12.77 11.96 12.77 11.88 12.78C10.12 12.72 8.71997 11.28 8.71997 9.50998C8.71997 7.69998 10.18 6.22998 12 6.22998C13.81 6.22998 15.28 7.69998 15.28 9.50998C15.27 11.28 13.88 12.72 12.12 12.78Z" stroke="#fff" stroke-width="1.5" stroke-linecap="round" stroke-linejoin="round"/>
<path d="M18.74 19.3801C16.96 21.0101 14.6 22.0001 12 22.0001C9.40001 22.0001 7.04001 21.0101 5.26001 19.3801C5.36001 18.4401 5.96001 17.5201 7.03001 16.8001C9.77001 14.9801 14.25 14.9801 16.97 16.8001C18.04 17.5201 18.64 18.4401 18.74 19.3801Z" stroke="#fff" stroke-width="1.5" stroke-linecap="round" stroke-linejoin="round"/>
<path d="M12 22C17.5228 22 22 17.5228 22 12C22 6.47715 17.5228 2 12 2C6.47715 2 2 6.47715 2 12C2 17.5228 6.47715 22 12 22Z" stroke="#fff" stroke-width="1.5" stroke-linecap="round" stroke-linejoin="round"/>
</svg>

<svg width="800" height="800" viewBox="0 0 24 24" fill="none" xmlns="http://www.w3.org/2000/svg"><path d="M12.12 12.78a.963.963 0 00-.24 0 3.27 3.27 0 01-3.16-3.27c0-1.81 1.46-3.28 3.28-3.28a3.276 3.276 0 01.12 6.55zm6.62 6.6A9.934 9.934 0 0112 22c-2.6 0-4.96-.99-6.74-2.62.1-.94.7-1.86 1.77-2.58 2.74-1.82 7.22-1.82 9.94 0 1.07.72 1.67 1.64 1.77 2.58z" stroke="#fff" stroke-width="1.5" stroke-linecap="round" stroke-linejoin="round"/><path d="M12 22c5.523 0 10-4.477 10-10S17.523 2 12 2 2 6.477 2 12s4.477 10 10 10z" stroke="#fff" stroke-width="1.5" stroke-linecap="round" stroke-linejoin="round"/></svg>
